icons/2_Variations/Internxt bg.var.svg

<svg xmlns="http://www.w3.org/2000/svg" width="1024" height="1024" fill="none">
   <g clip-path="url(#a)">
      <path fill="#9ABEFF" d="M512 1024c282.77 0 512-229.23 512-512S794.77 0 512 0 0 229.23 0 512s229.23 512 512 512Z"/>
      <path fill="#fff" d="M144.64 551.88H128v-79.76h16.64v79.76ZM250.87 527v-54.88h16.52v79.76h-17l-40.11-55v55h-16.61v-79.76h17l40.2 54.88Zm59.4-54.92h57.09v14.7h-20.29v65.06h-16.52v-65.02h-20.28v-14.74Zm148.86 0v14.7h-32.36v17.09h27.92v14.7h-27.92v18.57h32.36v14.7h-49v-79.72l49-.04Zm111 79.76H550l-22.33-32.81h-5.36v32.81h-16.68v-79.72h32.13c8.207 0 14.473 2.203 18.8 6.61s6.53 10.163 6.61 17.27c0 11.62-5.773 18.723-17.32 21.31l24.28 34.53Zm-47.85-46.37h13.1c3.647 0 6.42-.72 8.32-2.16 1.9-1.44 2.9-3.87 3-7.29 0-3.267-1-5.62-3-7.06-2-1.44-4.773-2.16-8.32-2.16h-13.1v18.67ZM670.34 527v-54.88h16.52v79.76h-17l-40.11-55v55h-16.61v-79.76h17l40.2 54.88Zm104.52-16.29 27.58 41.13h-19.15l-17.43-27.35-17.32 27.35h-19l27.46-41-26-38.74h18.91l16 25 16.06-25h19l-26.11 38.61Zm64.06-38.63H896v14.7h-20.28v65.06h-16.53v-65.02h-20.28l.01-14.74Z"/>
   </g>
   <defs>
      <clipPath id="a">
         <path fill="#fff" d="M0 0h1024v1024H0z"/>
      </clipPath>
   </defs>
</svg>

<svg width="1024" height="1024" viewBox="0 0 1024 1024" fill="none" xmlns="http://www.w3.org/2000/svg">
<g clip-path="url(#clip0_3_128)">
<path d="M512 1024C794.77 1024 1024 794.77 1024 512C1024 229.23 794.77 0 512 0C229.23 0 0 229.23 0 512C0 794.77 229.23 1024 512 1024Z" fill="#9ABEFF"/>
<path d="M144.64 551.88H128V472.12H144.64V551.88ZM250.87 527V472.12H267.39V551.88H250.39L210.28 496.88V551.88H193.67V472.12H210.67L250.87 527ZM310.27 472.08H367.36V486.78H347.07V551.84H330.55V486.82H310.27V472.08ZM459.13 472.08V486.78H426.77V503.87H454.69V518.57H426.77V537.14H459.13V551.84H410.13V472.12L459.13 472.08ZM570.13 551.84H550L527.67 519.03H522.31V551.84H505.63V472.12H537.76C545.967 472.12 552.233 474.323 556.56 478.73C560.887 483.137 563.09 488.893 563.17 496C563.17 507.62 557.397 514.723 545.85 517.31L570.13 551.84ZM522.28 505.47H535.38C539.027 505.47 541.8 504.75 543.7 503.31C545.6 501.87 546.6 499.44 546.7 496.02C546.7 492.753 545.7 490.4 543.7 488.96C541.7 487.52 538.927 486.8 535.38 486.8H522.28V505.47ZM670.34 527V472.12H686.86V551.88H669.86L629.75 496.88V551.88H613.14V472.12H630.14L670.34 527ZM774.86 510.71L802.44 551.84H783.29L765.86 524.49L748.54 551.84H729.54L757 510.84L731 472.1H749.91L765.91 497.1L781.97 472.1H800.97L774.86 510.71ZM838.92 472.08H896V486.78H875.72V551.84H859.19V486.82H838.91L838.92 472.08Z" fill="white"/>
</g>
<defs>
<clipPath id="clip0_3_128">
<rect width="1024" height="1024" fill="white"/>
</clipPath>
</defs>
</svg>
